X:100
T:Acres and Acres
O:england
M:6/8
L:1/8
Q:140
C:Words and music by Catherine Faber, (c) 1991
S:From "A Breeze Through the CONduit"
A:Filk
B:A Breeze Through the CONduit, (c) 1992 Julia West
D:on the tape, "A Breeze Through the CONduit"
W:When I was a young girl I went to the hill,
W:To seek huckleberries, my basket to fill.
W:They hung on the branches like grapes on the vine. . .
W:Acres and acres, and all of it mine
K:G
D|B2 c B2 A-|A3 D2 D|E2 G A2 B-|B3 z2 D|B2 c B2 A-A3 D2 D|E2 G A2 G-|G3
z2 D|B2 c B2 A-|A3 D2 D|E2 G A2 B-|B3 z3|1 B2 c B2 A-|A3 D2 D| E2 G A2 G
-|G3 z2:|3 B2 c2 B2| A2 D3 D|E2 G A2 G-|G4 z2||


